assets/imgs/list_3.svg

<svg width="30" height="30" viewBox="0 0 30 30" fill="none" xmlns="http://www.w3.org/2000/svg">
<rect x="4" y="4.8042" width="22" height="23" rx="2" fill="white" stroke="#4B4B4B" stroke-width="2"/>
<rect x="3.58696" y="10.0435" width="22.8261" height="1.17391" fill="white" stroke="#4B4B4B" stroke-width="1.17391"/>
<rect x="8.42505" y="6.875" width="4.75" height="1.25" rx="0.625" transform="rotate(-90 8.42505 6.875)" fill="#4B4B4B" stroke="#4B4B4B" stroke-width="1.25"/>
<rect x="20.4249" y="6.875" width="4.75" height="1.25" rx="0.625" transform="rotate(-90 20.4249 6.875)" fill="#4B4B4B" stroke="#4B4B4B" stroke-width="1.25"/>
<path d="M18.4187 19.8628L19.2113 20.4726L18.4187 19.8628C18.1382 20.2274 17.9919 20.6775 18.0046 21.1374L18.0748 23.6886L15.6701 22.8335C15.2367 22.6794 14.7633 22.6794 14.3299 22.8335L11.9252 23.6886L11.9954 21.1374C12.0081 20.6775 11.8618 20.2274 11.5813 19.8628L10.0249 17.84L12.473 17.1184C12.9142 16.9883 13.2971 16.7101 13.5572 16.3307L15 14.2255L16.4428 16.3307C16.7029 16.7101 17.0858 16.9883 17.527 17.1184L19.9751 17.84L18.4187 19.8628Z" fill="white" stroke="#4B4B4B" stroke-width="2"/>
</svg>

<svg width="30" height="30" fill="none" xmlns="http://www.w3.org/2000/svg"><rect x="4" y="4.804" width="22" height="23" rx="2" fill="#fff" stroke="#4B4B4B" stroke-width="2"/><path fill="#fff" stroke="#4B4B4B" stroke-width="1.174" d="M3.587 10.043h22.826v1.174H3.587z"/><rect x="8.425" y="6.875" width="4.75" height="1.25" rx=".625" transform="rotate(-90 8.425 6.875)" fill="#4B4B4B" stroke="#4B4B4B" stroke-width="1.25"/><rect x="20.425" y="6.875" width="4.75" height="1.25" rx=".625" transform="rotate(-90 20.425 6.875)" fill="#4B4B4B" stroke="#4B4B4B" stroke-width="1.25"/><path d="m18.419 19.863.792.61-.792-.61a2 2 0 0 0-.414 1.274l.07 2.552-2.405-.855a2 2 0 0 0-1.34 0l-2.405.855.07-2.552a2 2 0 0 0-.414-1.274l-1.556-2.023 2.448-.722a2 2 0 0 0 1.084-.787L15 14.226l1.443 2.105a2 2 0 0 0 1.084.787l2.448.722-1.556 2.023z" fill="#fff" stroke="#4B4B4B" stroke-width="2"/></svg>
